Numix-Circle/48x48/apps/aquemu_48x48.svg

<?xml version="1.0" encoding="UTF-8" standalone="no"?>
<svg
   xmlns:dc="http://purl.org/dc/elements/1.1/"
   xmlns:cc="http://creativecommons.org/ns#"
   xmlns:rdf="http://www.w3.org/1999/02/22-rdf-syntax-ns#"
   xmlns:svg="http://www.w3.org/2000/svg"
   xmlns="http://www.w3.org/2000/svg"
   xmlns:xlink="http://www.w3.org/1999/xlink"
   xmlns:sodipodi="http://sodipodi.sourceforge.net/DTD/sodipodi-0.dtd"
   xmlns:inkscape="http://www.inkscape.org/namespaces/inkscape"
   viewBox="0 0 48 48"
   id="svg2"
   version="1.1"
   inkscape:version="0.91 r13725"
   width="100%"
   height="100%"
   sodipodi:docname="aquemu_48x48.svg">
  <metadata
     id="metadata65">
    <rdf:RDF>
      <cc:Work
         rdf:about="">
        <dc:format>image/svg+xml</dc:format>
        <dc:type
           rdf:resource="http://purl.org/dc/dcmitype/StillImage" />
        <dc:title />
      </cc:Work>
    </rdf:RDF>
  </metadata>
  <sodipodi:namedview
     pagecolor="#ffffff"
     bordercolor="#666666"
     borderopacity="1"
     objecttolerance="10"
     gridtolerance="10"
     guidetolerance="10"
     inkscape:pageopacity="0"
     inkscape:pageshadow="2"
     inkscape:window-width="1366"
     inkscape:window-height="713"
     id="namedview63"
     showgrid="false"
     inkscape:zoom="8"
     inkscape:cx="25.172095"
     inkscape:cy="22.371279"
     inkscape:window-x="0"
     inkscape:window-y="28"
     inkscape:window-maximized="1"
     inkscape:current-layer="svg2"
     showguides="true"
     inkscape:guide-bbox="true">
    <inkscape:grid
       type="xygrid"
       id="grid3833" />
  </sodipodi:namedview>
  <defs
     id="defs4">
    <linearGradient
       id="linearGradient3892">
      <stop
         style="stop-color:#1f56a9;stop-opacity:1;"
         offset="0"
         id="stop3894" />
      <stop
         style="stop-color:#225fba;stop-opacity:1;"
         offset="1"
         id="stop3896" />
    </linearGradient>
    <linearGradient
       inkscape:collect="always"
       xlink:href="#linearGradient3892"
       id="linearGradient3898"
       x1="24"
       y1="47"
       x2="24"
       y2="1"
       gradientUnits="userSpaceOnUse" />
  </defs>
  <g
     id="g21">
    <path
       d="m 36.31 5 c 5.859 4.062 9.688 10.831 9.688 18.5 c 0 12.426 -10.07 22.5 -22.5 22.5 c -7.669 0 -14.438 -3.828 -18.5 -9.688 c 1.037 1.822 2.306 3.499 3.781 4.969 c 4.085 3.712 9.514 5.969 15.469 5.969 c 12.703 0 23 -10.298 23 -23 c 0 -5.954 -2.256 -11.384 -5.969 -15.469 c -1.469 -1.475 -3.147 -2.744 -4.969 -3.781 z m 4.969 3.781 c 3.854 4.113 6.219 9.637 6.219 15.719 c 0 12.703 -10.297 23 -23 23 c -6.081 0 -11.606 -2.364 -15.719 -6.219 c 4.16 4.144 9.883 6.719 16.219 6.719 c 12.703 0 23 -10.298 23 -23 c 0 -6.335 -2.575 -12.06 -6.719 -16.219 z"
       opacity="0.05"
       id="path23" />
    <path
       d="m 41.28 8.781 c 3.712 4.085 5.969 9.514 5.969 15.469 c 0 12.703 -10.297 23 -23 23 c -5.954 0 -11.384 -2.256 -15.469 -5.969 c 4.113 3.854 9.637 6.219 15.719 6.219 c 12.703 0 23 -10.298 23 -23 c 0 -6.081 -2.364 -11.606 -6.219 -15.719 z"
       opacity="0.1"
       id="path25" />
    <path
       d="m 31.25 2.375 c 8.615 3.154 14.75 11.417 14.75 21.13 c 0 12.426 -10.07 22.5 -22.5 22.5 c -9.708 0 -17.971 -6.135 -21.12 -14.75 a 23 23 0 0 0 44.875 -7 a 23 23 0 0 0 -16 -21.875 z"
       opacity="0.2"
       id="path27" />
  </g>
  <g
     id="g29">
    <path
       d="m 24 1 c 12.703 0 23 10.297 23 23 c 0 12.703 -10.297 23 -23 23 -12.703 0 -23 -10.297 -23 -23 0 -12.703 10.297 -23 23 -23 z"
       id="path31"
       style="fill:url(#linearGradient3898);fill-opacity:1.0"
       fill-opacity="1"
       fill="url(#linearGradient3764)" />
  </g>
  <g
     id="g33" />
  <g
     id="g59">
    <path
       d="m 40.03 7.531 c 3.712 4.084 5.969 9.514 5.969 15.469 0 12.703 -10.297 23 -23 23 c -5.954 0 -11.384 -2.256 -15.469 -5.969 4.178 4.291 10.01 6.969 16.469 6.969 c 12.703 0 23 -10.298 23 -23 0 -6.462 -2.677 -12.291 -6.969 -16.469 z"
       opacity="0.1"
       id="path61" />
  </g>
  <g
     id="g3880" />
  <g
     transform="scale(0.93032169,1.074897)"
     style="font-size:42.95858002px;font-style:normal;font-weight:normal;line-height:125%;letter-spacing:0px;word-spacing:0px;fill:#000000;fill-opacity:1;stroke:none;font-family:Sans"
     id="text3939" />
  <g
     id="g3009">
    <path
       inkscape:connector-curvature="0"
       style="fill:#000000;fill-opacity:0.11764706;fill-rule:nonzero;stroke:none"
       d="m 25,12 c -7.179702,0 -13,5.820298 -13,13 0,7.179702 5.820298,13 13,13 3.18142,0 6.115536,-1.133748 8.375,-3.03125 L 36.40625,38 38,36.40625 34.96875,33.375 C 36.866252,31.115536 38,28.18142 38,25 38,17.820298 32.179702,12 25,12 z m 0,2 c 5.832711,0 10.597162,4.542446 10.96875,10.28125 l -17.5625,-8.0625 C 20.245829,14.834841 22.520711,14 25,14 z m -8.8125,4.4375 8.03125,17.53125 C 18.509296,35.566926 14,30.811682 14,25 c 0,-2.463482 0.819566,-4.728981 2.1875,-6.5625 z m 2.875,0.65625 9.71875,4.59375 -5.125,5.09375 -4.59375,-9.6875 z m 11.90625,5.59375 4.84375,2.375 c -0.346404,1.826759 -1.150852,3.488746 -2.28125,4.875 L 31.625,30.03125 30.03125,31.625 31.9375,33.53125 c -1.393971,1.13251 -3.070476,1.938477 -4.90625,2.28125 L 24.6875,30.96875 30.96875,24.6875 z"
       id="path3834" />
    <path
       id="path3818"
       d="M 24 11 C 16.820298 11 11 16.820298 11 24 C 11 31.179702 16.820298 37 24 37 C 27.18142 37 30.115536 35.866252 32.375 33.96875 L 35.40625 37 L 37 35.40625 L 33.96875 32.375 C 35.866252 30.115536 37 27.18142 37 24 C 37 16.820298 31.179702 11 24 11 z M 24 13 C 29.832711 13 34.597162 17.542446 34.96875 23.28125 L 17.40625 15.21875 C 19.245829 13.834841 21.520711 13 24 13 z M 15.1875 17.4375 L 23.21875 34.96875 C 17.509296 34.566926 13 29.811682 13 24 C 13 21.536518 13.819566 19.271019 15.1875 17.4375 z M 18.0625 18.09375 L 27.78125 22.6875 L 22.65625 27.78125 L 18.0625 18.09375 z M 29.96875 23.6875 L 34.8125 26.0625 C 34.466096 27.889259 33.661648 29.551246 32.53125 30.9375 L 30.625 29.03125 L 29.03125 30.625 L 30.9375 32.53125 C 29.543529 33.66376 27.867024 34.469727 26.03125 34.8125 L 23.6875 29.96875 L 29.96875 23.6875 z "
       style="fill:#93c2e9;fill-opacity:1;fill-rule:nonzero;stroke:none" />
  </g>
  <g
     transform="matrix(0.69655995,-0.69655995,0.7178133,0.7178133,0,0)"
     style="font-size:45.6708107px;font-style:normal;font-weight:normal;line-height:125%;letter-spacing:0px;word-spacing:0px;fill:#000000;fill-opacity:1;stroke:none;font-family:Sans"
     id="text3825" />
</svg>

<svg xmlns="http://www.w3.org/2000/svg" viewBox="0 0 48 48"><defs><linearGradient id="linearGradient3898" y1="47" x2="0" y2="1" gradientUnits="userSpaceOnUse"><stop stop-color="#1f56a9" stop-opacity="1"/><stop offset="1" stop-color="#225fba" stop-opacity="1"/></linearGradient></defs><g><path d="m 36.31 5 c 5.859 4.062 9.688 10.831 9.688 18.5 c 0 12.426 -10.07 22.5 -22.5 22.5 c -7.669 0 -14.438 -3.828 -18.5 -9.688 c 1.037 1.822 2.306 3.499 3.781 4.969 c 4.085 3.712 9.514 5.969 15.469 5.969 c 12.703 0 23 -10.298 23 -23 c 0 -5.954 -2.256 -11.384 -5.969 -15.469 c -1.469 -1.475 -3.147 -2.744 -4.969 -3.781 z m 4.969 3.781 c 3.854 4.113 6.219 9.637 6.219 15.719 c 0 12.703 -10.297 23 -23 23 c -6.081 0 -11.606 -2.364 -15.719 -6.219 c 4.16 4.144 9.883 6.719 16.219 6.719 c 12.703 0 23 -10.298 23 -23 c 0 -6.335 -2.575 -12.06 -6.719 -16.219 z" opacity="0.05"/><path d="m 41.28 8.781 c 3.712 4.085 5.969 9.514 5.969 15.469 c 0 12.703 -10.297 23 -23 23 c -5.954 0 -11.384 -2.256 -15.469 -5.969 c 4.113 3.854 9.637 6.219 15.719 6.219 c 12.703 0 23 -10.298 23 -23 c 0 -6.081 -2.364 -11.606 -6.219 -15.719 z" opacity="0.1"/><path d="m 31.25 2.375 c 8.615 3.154 14.75 11.417 14.75 21.13 c 0 12.426 -10.07 22.5 -22.5 22.5 c -9.708 0 -17.971 -6.135 -21.12 -14.75 a 23 23 0 0 0 44.875 -7 a 23 23 0 0 0 -16 -21.875 z" opacity="0.2"/></g><g><path d="m 24 1 c 12.703 0 23 10.297 23 23 c 0 12.703 -10.297 23 -23 23 -12.703 0 -23 -10.297 -23 -23 0 -12.703 10.297 -23 23 -23 z" fill-opacity="1" fill="url(#linearGradient3898)"/></g><g><path d="m 40.03 7.531 c 3.712 4.084 5.969 9.514 5.969 15.469 0 12.703 -10.297 23 -23 23 c -5.954 0 -11.384 -2.256 -15.469 -5.969 4.178 4.291 10.01 6.969 16.469 6.969 c 12.703 0 23 -10.298 23 -23 0 -6.462 -2.677 -12.291 -6.969 -16.469 z" opacity="0.1"/></g><g><path d="m 25 12 c -7.18 0 -13 5.82 -13 13 0 7.18 5.82 13 13 13 3.181 0 6.116 -1.134 8.375 -3.03 l 3.03 3.03 1.594 -1.594 -3.03 -3.03 c 1.898 -2.259 3.03 -5.194 3.03 -8.375 0 -7.18 -5.82 -13 -13 -13 z m 0 2 c 5.833 0 10.597 4.542 10.969 10.281 l -17.563 -8.06 c 1.84 -1.384 4.114 -2.219 6.594 -2.219 z m -8.813 4.438 8.03 17.531 c -5.709 -0.402 -10.219 -5.157 -10.219 -10.969 c 0 -2.463 0.82 -4.729 2.188 -6.563 z m 2.875 0.656 9.719 4.594 -5.125 5.094 -4.594 -9.688 z m 11.906 5.594 4.844 2.375 c -0.346 1.827 -1.151 3.489 -2.281 4.875 l -1.906 -1.906 -1.594 1.594 1.906 1.906 c -1.394 1.133 -3.07 1.938 -4.906 2.281 l -2.344 -4.844 6.281 -6.281 z" fill="#000" fill-rule="nonzero" stroke="none" fill-opacity="0.118"/><path d="m 24 11 c -7.18 0 -13 5.82 -13 13 c 0 7.18 5.82 13 13 13 c 3.181 0 6.116 -1.134 8.375 -3.03 l 3.03 3.03 l 1.594 -1.594 l -3.03 -3.03 c 1.898 -2.259 3.03 -5.194 3.03 -8.375 c 0 -7.18 -5.82 -13 -13 -13 z m 0 2 c 5.833 0 10.597 4.542 10.969 10.281 l -17.563 -8.06 c 1.84 -1.384 4.114 -2.219 6.594 -2.219 z m -8.813 4.438 l 8.03 17.531 c -5.709 -0.402 -10.219 -5.157 -10.219 -10.969 c 0 -2.463 0.82 -4.729 2.188 -6.563 z m 2.875 0.656 l 9.719 4.594 l -5.125 5.094 l -4.594 -9.688 z m 11.906 5.594 l 4.844 2.375 c -0.346 1.827 -1.151 3.489 -2.281 4.875 l -1.906 -1.906 l -1.594 1.594 l 1.906 1.906 c -1.394 1.133 -3.07 1.938 -4.906 2.281 l -2.344 -4.844 l 6.281 -6.281 z" fill="#93c2e9" fill-rule="nonzero" stroke="none" fill-opacity="1"/></g></svg>
